public/assets/footer/linkedin-light.svg

<svg fill="none" height="36" viewBox="0 0 36 36" width="36" xmlns="http://www.w3.org/2000/svg"><path d="m11.4566 14.151h-5.14286c-.1705 0-.33401.0677-.45457.1882-.12056.1206-.18829.2841-.18829.4546v15.4286c0 .1705.06773.334.18829.4546.12056.1205.28407.1882.45457.1882h5.14286c.1705 0 .334-.0677.4546-.1882.1205-.1206.1882-.2841.1882-.4546v-15.4286c0-.1705-.0677-.334-.1882-.4546-.1206-.1205-.2841-.1882-.4546-.1882zm-.6429 15.4285h-3.8571v-14.1428h3.8571zm14.1429-15.4285c-1.395 0-2.7514.4602-3.8572 1.3101v-.6673c0-.1705-.0677-.334-.1882-.4546-.1206-.1205-.2841-.1882-.4546-.1882h-5.1429c-.1705 0-.334.0677-.4545.1882-.1206.1206-.1883.2841-.1883.4546v15.4286c0 .1705.0677.334.1883.4546.1205.1205.284.1882.4545.1882h5.1429c.1705 0 .334-.0677.4546-.1882.1205-.1206.1882-.2841.1882-.4546v-7.0714c0-.5115.2032-1.0021.5649-1.3638.3617-.3616.8522-.5648 1.3637-.5648s1.002.2032 1.3637.5648c.3617.3617.5649.8523.5649 1.3638v7.0714c0 .1705.0677.334.1883.4546.1205.1205.284.1882.4545.1882h5.1429c.1705 0 .334-.0677.4546-.1882.1205-.1206.1882-.2841.1882-.4546v-9.6429c-.002-1.7043-.6799-3.3383-1.8851-4.5434-1.2051-1.2052-2.8391-1.8831-4.5434-1.8851zm5.1428 15.4285h-3.8571v-6.4285c0-.8525-.3387-1.6701-.9414-2.2729-.6028-.6028-1.4204-.9414-2.2729-.9414s-1.67.3386-2.2728.9414-.9415 1.4204-.9415 2.2729v6.4285h-3.8571v-14.1428h3.8571v1.5467c0 .1331.0413.263.1183.3717.0769.1086.1857.1907.3113.2349.1256.0441.2618.0482.3899.0117.128-.0366.2415-.112.3248-.2159.6603-.8369 1.5652-1.4469 2.5887-1.7449 1.0235-.2981 2.1144-.2693 3.1208.0823 1.0063.3516 1.8779 1.0084 2.4931 1.879.6152.8705.9434 1.9113.9388 2.9773zm-20.74109-24.42598c-.15107-.01065-.30267-.01151-.45386-.00257-.48115-.03274-.96391.03366-1.41835.19509-.45445.16143-.87091.41445-1.22359.74339-.35268.32893-.63407.72678-.82673 1.16889-.19267.44211-.2925.91908-.29332 1.40134-.004.47723.09009.95019.27643 1.38954.18633.4394.46094.8358.8068 1.1646.34585.3289.75558.5832 1.20377.7472s.92529.2341 1.40171.2061h.036c.46051.0322.92287-.0265 1.36063-.173.4379-.1464.8425-.3776 1.191-.6805.3484-.3028.6338-.6713.8398-1.0844.206-.41315.3287-.8628.3609-1.32332.0323-.46052-.0265-.92288-.1729-1.36068-.1465-.43781-.3777-.84248-.6805-1.19092-.3029-.34844-.6714-.63382-1.0845-.83985-.4131-.20602-.86277-.32866-1.32329-.36091zm-.045 5.73168c-.14848.0135-.29792.0122-.44614-.0038h-.036c-.30944.0232-.62032-.0183-.91281-.1219-.29249-.1037-.56015-.2672-.7859-.4801s-.40462-.4705-.5252-.75643c-.12058-.28592-.18022-.59384-.1751-.90411.00511-.31026.07487-.61605.20481-.89785.12994-.28179.31721-.53339.54986-.73874.23264-.20534.50555-.35992.80129-.45387.29575-.09394.60783-.12519.91633-.09174.58992-.05421 1.17725.12813 1.63265.50693.4555.3788.7418.92301.7961 1.51293.0542.58992-.1282 1.17721-.507 1.63268-.3788.4555-.92297.7418-1.51289.796z" fill="#1e1e1e"/></svg>

<svg xmlns="http://www.w3.org/2000/svg" width="36" height="36" fill="none" viewBox="0 0 36 36"><path fill="#1E1E1E" d="M11.4566 14.151H6.31374C6.14324 14.151 5.97973 14.2187 5.85917 14.3392C5.73861 14.4598 5.67088 14.6233 5.67088 14.7938V30.2224C5.67088 30.3929 5.73861 30.5564 5.85917 30.677C5.97973 30.7975 6.14324 30.8652 6.31374 30.8652H11.4566C11.6271 30.8652 11.7906 30.7975 11.9112 30.677C12.0317 30.5564 12.0994 30.3929 12.0994 30.2224V14.7938C12.0994 14.6233 12.0317 14.4598 11.9112 14.3392C11.7906 14.2187 11.6271 14.151 11.4566 14.151ZM10.8137 29.5795H6.9566V15.4367H10.8137V29.5795ZM24.9566 14.151C23.5616 14.151 22.2052 14.6112 21.0994 15.4611V14.7938C21.0994 14.6233 21.0317 14.4598 20.9112 14.3392C20.7906 14.2187 20.6271 14.151 20.4566 14.151H15.3137C15.1432 14.151 14.9797 14.2187 14.8592 14.3392C14.7386 14.4598 14.6709 14.6233 14.6709 14.7938V30.2224C14.6709 30.3929 14.7386 30.5564 14.8592 30.677C14.9797 30.7975 15.1432 30.8652 15.3137 30.8652H20.4566C20.6271 30.8652 20.7906 30.7975 20.9112 30.677C21.0317 30.5564 21.0994 30.3929 21.0994 30.2224V23.151C21.0994 22.6395 21.3026 22.1489 21.6643 21.7872C22.026 21.4256 22.5165 21.2224 23.028 21.2224C23.5395 21.2224 24.03 21.4256 24.3917 21.7872C24.7534 22.1489 24.9566 22.6395 24.9566 23.151V30.2224C24.9566 30.3929 25.0243 30.5564 25.1449 30.677C25.2654 30.7975 25.4289 30.8652 25.5994 30.8652H30.7423C30.9128 30.8652 31.0763 30.7975 31.1969 30.677C31.3174 30.5564 31.3851 30.3929 31.3851 30.2224V20.5795C31.3831 18.8752 30.7052 17.2412 29.5 16.0361C28.2949 14.8309 26.6609 14.153 24.9566 14.151ZM30.0994 29.5795H26.2423V23.151C26.2423 22.2985 25.9036 21.4809 25.3009 20.8781C24.6981 20.2753 23.8805 19.9367 23.028 19.9367C22.1755 19.9367 21.358 20.2753 20.7552 20.8781C20.1524 21.4809 19.8137 22.2985 19.8137 23.151V29.5795H15.9566V15.4367H19.8137V16.9834C19.8137 17.1165 19.855 17.2464 19.932 17.3551C20.0089 17.4637 20.1177 17.5458 20.2433 17.59C20.3689 17.6341 20.5051 17.6382 20.6332 17.6017C20.7612 17.5651 20.8747 17.4897 20.958 17.3858C21.6183 16.5489 22.5232 15.9389 23.5467 15.6409C24.5702 15.3428 25.6611 15.3716 26.6675 15.7232C27.6738 16.0748 28.5454 16.7316 29.1606 17.6022C29.7758 18.4727 30.104 19.5135 30.0994 20.5795V29.5795ZM9.35831 5.15352C9.20724 5.14287 9.05564 5.14201 8.90445 5.15095C8.4233 5.11821 7.94054 5.18461 7.4861 5.34604C7.03165 5.50747 6.61519 5.76049 6.26251 6.08943C5.90983 6.41836 5.62844 6.81621 5.43578 7.25832C5.24311 7.70043 5.14328 8.1774 5.14246 8.65966C5.13846 9.13689 5.23255 9.60985 5.41889 10.0492C5.60522 10.4886 5.87983 10.885 6.22569 11.2138C6.57154 11.5427 6.98127 11.797 7.42946 11.961C7.87765 12.125 8.35475 12.1951 8.83117 12.1671H8.86717C9.32768 12.1993 9.79004 12.1406 10.2278 11.9941C10.6657 11.8477 11.0703 11.6165 11.4188 11.3136C11.7672 11.0108 12.0526 10.6423 12.2586 10.2292C12.4646 9.81605 12.5873 9.3664 12.6195 8.90588C12.6518 8.44536 12.593 7.983 12.4466 7.5452C12.3001 7.10739 12.0689 6.70272 11.7661 6.35428C11.4632 6.00584 11.0947 5.72046 10.6816 5.51443C10.2685 5.30841 9.81883 5.18577 9.35831 5.15352ZM9.31331 10.8852C9.16483 10.8987 9.01539 10.8974 8.86717 10.8814H8.83117C8.52173 10.9046 8.21085 10.8631 7.91836 10.7595C7.62587 10.6558 7.35821 10.4923 7.13246 10.2794C6.90671 10.0665 6.72784 9.8089 6.60726 9.52297C6.48668 9.23705 6.42704 8.92913 6.43216 8.61886C6.43727 8.3086 6.50703 8.00281 6.63697 7.72101C6.76691 7.43922 6.95418 7.18762 7.18683 6.98227C7.41947 6.77693 7.69238 6.62235 7.98812 6.5284C8.28387 6.43446 8.59595 6.40321 8.90445 6.43666C9.49437 6.38245 10.0817 6.56479 10.5371 6.94359C10.9926 7.32239 11.2789 7.8666 11.3332 8.45652C11.3874 9.04644 11.205 9.63373 10.8262 10.0892C10.4474 10.5447 9.90323 10.831 9.31331 10.8852Z"/></svg>
